IconSet/eva icons.iconjar/icons/book-outline.svg

<svg xmlns="http://www.w3.org/2000/svg" viewBox="0 0 24 24"><g data-name="Layer 2"><g data-name="book"><rect width="24" height="24" opacity="0"/><path d="M19 3H7a3 3 0 0 0-3 3v12a3 3 0 0 0 3 3h12a1 1 0 0 0 1-1V4a1 1 0 0 0-1-1zM7 5h11v10H7a3 3 0 0 0-1 .18V6a1 1 0 0 1 1-1zm0 14a1 1 0 0 1 0-2h11v2z"/></g></g></svg>

<svg xmlns="http://www.w3.org/2000/svg" viewBox="0 0 24 24"><defs><style>.cls-1{fill:#fff;opacity:0;}.cls-2{fill:#231f20;}</style></defs><title>book</title><g id="Layer_2" data-name="Layer 2"><g id="book"><g id="book-2" data-name="book"><rect class="cls-1" width="24" height="24"/><path class="cls-2" d="M19,3H7A3,3,0,0,0,4,6V18a3,3,0,0,0,3,3H19a1,1,0,0,0,1-1V4A1,1,0,0,0,19,3ZM7,5H18V15H7a3,3,0,0,0-1,.18V6A1,1,0,0,1,7,5ZM7,19a1,1,0,0,1,0-2H18v2Z"/></g></g></g></svg>
